src/components/AppLayout/Header/components/WalletIcon/icons/icon-safe-mobile.svg

<svg width="27" height="27" viewBox="0 0 27 27" fill="none" xmlns="http://www.w3.org/2000/svg">
<path fill-rule="evenodd" clip-rule="evenodd" d="M18 2.25H9C7.14487 2.25 5.625 3.76875 5.625 5.625V21.375C5.625 23.2313 7.14487 24.75 9 24.75H18C19.8562 24.75 21.375 23.2313 21.375 21.375V5.625C21.375 3.76875 19.8562 2.25 18 2.25ZM18 4.5C18.6098 4.5 19.125 5.01525 19.125 5.625V21.375C19.125 21.9848 18.6098 22.5 18 22.5H9C8.39025 22.5 7.875 21.9848 7.875 21.375V5.625C7.875 5.01525 8.39025 4.5 9 4.5H18Z" fill="#008C73"/>
<path fill-rule="evenodd" clip-rule="evenodd" d="M13.5 18.8511C12.7237 18.8511 12.0938 19.4811 12.0938 20.2573C12.0938 21.0336 12.7237 21.6636 13.5 21.6636C14.2762 21.6636 14.9062 21.0336 14.9062 20.2573C14.9062 19.4811 14.2762 18.8511 13.5 18.8511Z" fill="#008C73"/>
</svg>

<svg width="27" height="27" fill="none" xmlns="http://www.w3.org/2000/svg"><path fill-rule="evenodd" clip-rule="evenodd" d="M18 2.25H9a3.386 3.386 0 0 0-3.375 3.375v15.75A3.386 3.386 0 0 0 9 24.75h9a3.385 3.385 0 0 0 3.375-3.375V5.625A3.385 3.385 0 0 0 18 2.25zm0 2.25c.61 0 1.125.515 1.125 1.125v15.75A1.14 1.14 0 0 1 18 22.5H9a1.14 1.14 0 0 1-1.125-1.125V5.625C7.875 5.015 8.39 4.5 9 4.5h9z" fill="#008C73"/><path fill-rule="evenodd" clip-rule="evenodd" d="M13.5 18.851a1.407 1.407 0 1 0 .001 2.813 1.407 1.407 0 0 0-.001-2.813z" fill="#008C73"/></svg>
